public/img/footerIcons/LinkedIn.svg

<svg width="22" height="22" viewBox="0 0 22 22" fill="none" xmlns="http://www.w3.org/2000/svg">
<path fill-rule="evenodd" clip-rule="evenodd" d="M4.96826 0H17.0317C18.3482 0.00379662 19.6097 0.530896 20.5407 1.46615C21.4716 2.4014 21.9962 3.66878 22 4.99142V17.0104C21.9958 18.3327 21.4709 19.5996 20.54 20.5345C19.6092 21.4694 18.3479 21.9962 17.0317 22H4.96826C3.65207 21.9962 2.39084 21.4694 1.45997 20.5345C0.529113 19.5996 0.00425106 18.3327 0 17.0104V4.99142C0.00377901 3.66878 0.528433 2.4014 1.45934 1.46615C2.39026 0.530896 3.65176 0.00379662 4.96826 0Z" fill="#0A66C2"/>
<path fill-rule="evenodd" clip-rule="evenodd" d="M8.8068 8.52771H11.5872V9.96667H11.6266C12.0151 9.26878 12.9605 8.52771 14.373 8.52771C17.3075 8.52771 17.8499 10.3624 17.8499 12.7493V17.7965H14.9513V13.3105C14.9513 12.2834 14.9299 10.9614 13.4438 10.9614C11.9578 10.9614 11.7036 12.0784 11.7036 13.2367V17.8054H8.8068V8.52771ZM7.16146 5.71813C7.16146 6.01767 7.07305 6.31048 6.9074 6.55954C6.74176 6.8086 6.50632 7.00272 6.23086 7.11735C5.9554 7.23198 5.6523 7.26197 5.35988 7.20354C5.06745 7.1451 4.79884 7.00086 4.58802 6.78905C4.37719 6.57724 4.23362 6.30738 4.17545 6.01359C4.11728 5.71981 4.14714 5.41529 4.26124 5.13855C4.37533 4.86181 4.56855 4.62527 4.81646 4.45885C5.06436 4.29244 5.35582 4.20361 5.65397 4.20361C6.05364 4.20409 6.4368 4.36381 6.7194 4.64773C7.00201 4.93165 7.16099 5.3166 7.16146 5.71813ZM4.15007 8.52771H7.16146V17.7965H4.15007V8.52771Z" fill="white"/>
</svg>

<svg width="22" height="22" fill="none" xmlns="http://www.w3.org/2000/svg"><path fill-rule="evenodd" clip-rule="evenodd" d="M4.968 0h12.064a4.971 4.971 0 0 1 3.509 1.466A5.018 5.018 0 0 1 22 4.991v12.02a5.017 5.017 0 0 1-1.46 3.524A4.97 4.97 0 0 1 17.032 22H4.968a4.97 4.97 0 0 1-3.508-1.465A5.018 5.018 0 0 1 0 17.01V4.991a5.018 5.018 0 0 1 1.46-3.525A4.971 4.971 0 0 1 4.967 0z" fill="#0A66C2"/><path fill-rule="evenodd" clip-rule="evenodd" d="M8.807 8.528h2.78v1.439h.04c.388-.698 1.333-1.44 2.746-1.44 2.935 0 3.477 1.835 3.477 4.222v5.048H14.95V13.31c0-1.027-.021-2.349-1.507-2.349s-1.74 1.117-1.74 2.276v4.568H8.807V8.528zM7.16 5.718a1.52 1.52 0 0 1-.93 1.4 1.501 1.501 0 0 1-1.643-.329 1.517 1.517 0 0 1 1.066-2.585c.4 0 .783.16 1.065.444.283.284.442.669.442 1.07zm-3.01 2.81h3.01v9.269h-3.01v-9.27z" fill="#fff"/></svg>
